www/assets/icons/local_gas_station.svg

<svg xmlns="http://www.w3.org/2000/svg" width="24" height="24" viewBox="0 0 24 24" fill='currentColor'><path d="m19.52 7.23.01-.01-3.72-3.72-1.06 1.06 2.11 2.11c-.94.36-1.61 1.26-1.61 2.33a2.5 2.5 0 0 0 2.5 2.5c.36 0 .69-.08 1-.21v7.21c0 .55-.45 1-1 1s-1-.45-1-1V14c0-1.1-.9-2-2-2h-1V5c0-1.1-.9-2-2-2h-6c-1.1 0-2 .9-2 2v16h10v-7.5h1.5v5a2.5 2.5 0 0 0 5 0V9c0-.69-.28-1.32-.73-1.77M11.75 10h-6V5h6zm6 0c-.55 0-1-.45-1-1s.45-1 1-1 1 .45 1 1-.45 1-1 1"/></svg>

<svg width="24" height="24" viewBox="0 0 24 24" xmlns="http://www.w3.org/2000/svg" fill='currentColor'><path d="M19.52 7.23L19.53 7.22L15.81 3.5L14.75 4.56L16.86 6.67C15.92 7.03 15.25 7.93 15.25 9C15.25 10.38 16.37 11.5 17.75 11.5C18.11 11.5 18.44 11.42 18.75 11.29V18.5C18.75 19.05 18.3 19.5 17.75 19.5C17.2 19.5 16.75 19.05 16.75 18.5V14C16.75 12.9 15.85 12 14.75 12H13.75V5C13.75 3.9 12.85 3 11.75 3H5.75C4.65 3 3.75 3.9 3.75 5V21H13.75V13.5H15.25V18.5C15.25 19.88 16.37 21 17.75 21C19.13 21 20.25 19.88 20.25 18.5V9C20.25 8.31 19.97 7.68 19.52 7.23ZM11.75 10H5.75V5H11.75V10ZM17.75 10C17.2 10 16.75 9.55 16.75 9C16.75 8.45 17.2 8 17.75 8C18.3 8 18.75 8.45 18.75 9C18.75 9.55 18.3 10 17.75 10Z"/></svg>
